public/icons/picto-gaz.svg

<svg fill="none" height="15" viewBox="0 0 11 15" width="11" xmlns="http://www.w3.org/2000/svg"><path d="m3.74206 14.9682c.07684.0317.1608.0399.24204.0237s.15622-.0561.21613-.115c.05993-.0591.10262-.1345.12289-.2174.02027-.083.01736-.1701-.00825-.2515-.23597-.8366-.30914-1.7131-.21515-2.579.06531-.6902.28289-1.3559.63583-1.94607.35295-.59014.83188-1.08911 1.40044-1.4587-.03206.18311-.05279.36813-.06223.55396-.03819.88802.20097 2.16201 1.50958 3.19311.89251.7324.41409 2.2076.40203 2.2305-.029.0854-.03219.178-.00923.2654.02297.0874.07114.1656.138.2242.06694.059.1496.0958.23714.1054.08754.0097.17575-.0083.25323-.0514.68986-.4013 1.25903-.9915 1.64449-1.7055.5918-1.0587.8439-2.2836.7204-3.49923-.1235-1.21567-.6164-2.35986-1.4081-3.26886-1.27243-1.48972-3.27042-4.22224-2.35781-5.77213.05666-.08625.08238-.190183.07283-.293925-.00955-.103741-.05385-.200811-.12524-.274498-.07139-.0736867-.16529-.1193847-.2658-.12924536-.10051-.00986064-.20128.01673736-.28484.07522226-2.79612 1.8154661-3.78512 4.0956761-4.12081 5.6870561-.08821.42152-.14401.84958-.16686 1.28018-.18775-.55131-.27423-1.13391-.2552-1.71796.00238-.1008-.02814-.1995-.08657-.2803s-.14146-.139-.23576-.16531-.19453-.01918-.28444.02024c-.08991.03941-.16429.10883-.21142.19714-1.24428847 2.33418-1.553915 4.44012-.918706 6.25762.896526 2.5624 3.318866 3.5708 3.421386 3.6123zm5.10371-2.4524c-.13873-.4155-.39078-.7807-.72574-1.052-1.93578-1.5125-.9005-3.65164-.85628-3.73463.04221-.0826.05843-.17669.04653-.26926-.0119-.09256-.05127-.17902-.11288-.2474-.0616-.06837-.14227-.1153-.23085-.13426-.08858-.01895-.18077-.00899-.26364.02847-2.56093 1.15775-3.29871 3.17448-3.46555 4.66008-.06785.6436-.0543 1.2936.04024 1.9337-.96574-.6162-1.71127-1.5394-2.1246-2.6309-.422129-1.20753-.345916-2.58727.22497-4.11849.19363.8242.61221 1.57378 1.20609 2.15987.07049.06084.15784.09716.2495.10376.09167.00661.18309-.01682.26109-.06696.07799-.05014.13866-.12444.17333-.21227.03468-.08783.04146-.1847.01963-.27683-.16193-.90276-.1406-1.83037.06243-2.72424.30519-1.38997.99265-2.65942 1.97992-3.65583.24518-.25448.50498-.49353.77796-.71582-.03016 1.44199.90859 3.2886 2.81421 5.51488.6724.76543 1.09287 1.73084 1.20117 2.758.1083 1.02713-.101 2.06333-.59812 2.96023-.15132.2545-.32853.4917-.52865.7075.00514-.3357-.04586-.6698-.15076-.9876z" fill="#3153ce"/></svg>

<svg width="11" height="15" viewBox="0 0 11 15" fill="none" xmlns="http://www.w3.org/2000/svg">
<path d="M3.74206 14.9682C3.8189 14.9999 3.90286 15.0081 3.9841 14.9919C4.06534 14.9757 4.14032 14.9358 4.20023 14.8769C4.26016 14.8178 4.30285 14.7424 4.32312 14.6595C4.34339 14.5765 4.34048 14.4894 4.31487 14.408C4.0789 13.5714 4.00573 12.6949 4.09972 11.829C4.16503 11.1388 4.38261 10.4731 4.73555 9.88293C5.0885 9.29279 5.56743 8.79382 6.13599 8.42423C6.10393 8.60734 6.0832 8.79236 6.07376 8.97819C6.03557 9.86621 6.27473 11.1402 7.58334 12.1713C8.47585 12.9037 7.99743 14.3789 7.98537 14.4018C7.95637 14.4872 7.95318 14.5798 7.97614 14.6672C7.99911 14.7546 8.04728 14.8328 8.11414 14.8914C8.18108 14.9504 8.26374 14.9872 8.35128 14.9968C8.43882 15.0065 8.52703 14.9885 8.60451 14.9454C9.29437 14.5441 9.86354 13.9539 10.249 13.2399C10.8408 12.1812 11.0929 10.9563 10.9694 9.74067C10.8459 8.525 10.353 7.38081 9.5613 6.47181C8.28887 4.98209 6.29088 2.24957 7.20349 0.69968C7.26015 0.61343 7.28587 0.509497 7.27632 0.405755C7.26677 0.302014 7.22247 0.204944 7.15108 0.131257C7.07969 0.0575703 6.98579 0.0118723 6.88528 0.00201164C6.78477 -0.007849 6.684 0.018749 6.60044 0.0772339C3.80432 1.8927 2.81532 4.17291 2.47963 5.76429C2.39142 6.18581 2.33562 6.61387 2.31277 7.04447C2.12502 6.49316 2.03854 5.91056 2.05757 5.32651C2.05995 5.22571 2.02943 5.12701 1.971 5.04621C1.91257 4.96541 1.82954 4.90721 1.73524 4.8809C1.64094 4.85459 1.54071 4.86172 1.4508 4.90114C1.36089 4.94055 1.28651 5.00997 1.23938 5.09828C-0.00490847 7.43246 -0.314535 9.5384 0.320674 11.3559C1.2172 13.9183 3.63954 14.9267 3.74206 14.9682ZM8.84577 12.5158C8.70704 12.1003 8.45499 11.7351 8.12003 11.4638C6.18425 9.9513 7.21953 7.81216 7.26375 7.72917C7.30596 7.64657 7.32218 7.55248 7.31028 7.45991C7.29838 7.36735 7.25901 7.28089 7.1974 7.21251C7.1358 7.14414 7.05513 7.09721 6.96655 7.07825C6.87797 7.0593 6.78578 7.06926 6.70291 7.10672C4.14198 8.26447 3.4042 10.2812 3.23736 11.7668C3.16951 12.4104 3.18306 13.0604 3.2776 13.7005C2.31186 13.0843 1.56633 12.1611 1.153 11.0696C0.730871 9.86207 0.807084 8.48233 1.37797 6.95111C1.5716 7.77531 1.99018 8.52489 2.58406 9.11098C2.65455 9.17182 2.7419 9.20814 2.83356 9.21474C2.92523 9.22135 3.01665 9.19792 3.09465 9.14778C3.17264 9.09764 3.23331 9.02334 3.26798 8.93551C3.30266 8.84768 3.30944 8.75081 3.28761 8.65868C3.12568 7.75592 3.14701 6.82831 3.35004 5.93444C3.65523 4.54447 4.34269 3.27502 5.32996 2.27861C5.57514 2.02413 5.83494 1.78508 6.10792 1.56279C6.07776 3.00478 7.01651 4.85139 8.92213 7.07767C9.59453 7.8431 10.015 8.80851 10.1233 9.83567C10.2316 10.8628 10.0223 11.899 9.52518 12.7959C9.37386 13.0504 9.19665 13.2876 8.99653 13.5034C9.00167 13.1677 8.95067 12.8336 8.84577 12.5158Z" fill="#3153CE"/>
</svg>
